src/icons/folder-open.svg

<svg xmlns="http://www.w3.org/2000/svg" width="512" height="512" viewBox="0 0 512 512">
    <path d="M224.5 137.5l30.5 34.3h129.5c16.8 0 30.5 13.7 30.5 30.5v133.4c0 10.9-5.7 20.4-14.2 25.8 4.7-6.6 6.8-14.6 5.9-22.8l-6.4-133.3c0-12.3-7.3-22.5-22.8-22.5H95V168c0-16.8 13.7-30.5 30.4-30.5h99.1zm99.8 120c15.8 0 22.3 4.9 29.8 18.6l46.1 59.2c1.3 13.4-8.5 24.4-22.5 26-1.1.1-2.3.2-3.5.2H130.7c-15.8 0-26.9-12.7-31.4-26.1l-35.2-47.2c-5.1-15 4.7-30.6 21.6-30.6.7 0 1.4-.1 2.1-.1h236.5zm51.8-45.7l19.6 91.7-29.8-51.3c-5.5-14.7-15.4-22-33.4-22H85.8l-10.4-18.4h300.7z"/>
</svg>

<?xml version="1.0" encoding="UTF-8"?>
<svg width="512px" height="512px" viewBox="0 0 512 512" version="1.1" xmlns="http://www.w3.org/2000/svg" xmlns:xlink="http://www.w3.org/1999/xlink">
    <!-- Generator: Sketch 62 (91390) - https://sketch.com -->
    <title>folder-open</title>
    <desc>Created with Sketch.</desc>
    <g id="folder-open" stroke="none" stroke-width="1" fill="none" fill-rule="evenodd">
        <path d="M224.5,137.5 L255,171.8 L384.5,171.8 C401.3,171.8 415,185.5 415,202.3 L415,202.3 L415,335.7 C415,346.6 409.3,356.1 400.8,361.5 C405.5,354.9 407.6,346.9 406.7,338.7 L406.7,338.7 L400.3,205.4 C400.3,193.1 393,182.9 377.5,182.9 L377.5,182.9 L95,182.9 L95,168 C95,151.2 108.7,137.5 125.4,137.5 L125.4,137.5 L224.5,137.5 Z M324.3,257.5 C340.1,257.5 346.6,262.4 354.1,276.1 L400.2,335.3 C401.5,348.7 391.7,359.7 377.7,361.3 C376.6,361.4 375.4,361.5 374.2,361.5 L130.7,361.5 C114.9,361.5 103.8,348.8 99.3,335.4 L64.1,288.2 C59,273.2 68.8,257.6 85.7,257.6 C86.4,257.6 87.1,257.5 87.8,257.5 L324.3,257.5 Z M376.1,211.8 L395.7,303.5 L365.9,252.2 C360.4,237.5 350.5,230.2 332.5,230.2 L332.5,230.2 L85.8,230.2 L75.4,211.8 L376.1,211.8 Z" id="Combined-Shape" fill="#000000" fill-rule="nonzero"></path>
    </g>
</svg>
